packages/foundations/assets/icons/functional/images/social/star_16.svg

<svg width="16" height="16" viewBox="0 0 16 16" fill="none" xmlns="http://www.w3.org/2000/svg">
<g clip-path="url(#clip0_187_440)">
<path fill-rule="evenodd" clip-rule="evenodd" d="M7.99998 1.87506C8.29998 1.87506 8.59998 2.05002 8.72494 2.32498L10.25 5.45002L13.7249 5.95002C14.1 6.00002 14.4 6.32498 14.4 6.75002C14.4 6.95002 14.3 7.17506 14.15 7.32498L11.65 9.75002L12.25 13.2C12.3249 13.7 11.95 14.125 11.45 14.125C11.3249 14.125 11.2 14.0751 11.1 14.025L7.99998 12.4L4.89998 14.025C4.77502 14.1 4.67502 14.125 4.52494 14.125C4.04998 14.125 3.67502 13.65 3.74998 13.2L4.34998 9.75002L1.84998 7.32498C1.69998 7.17506 1.59998 6.95002 1.59998 6.75002C1.59998 6.42498 1.82494 6.02498 2.27502 5.95002L5.74998 5.45002L7.27502 2.32498C7.39998 2.05002 7.69998 1.87506 7.99998 1.87506ZM7.99998 4.47506L6.97502 6.52498C6.84998 6.77506 6.64998 6.92498 6.37502 6.97506L4.12494 7.30002L5.74998 8.90002C5.92494 9.07506 6.04998 9.37506 5.99998 9.60002L5.59998 11.85L7.62494 10.8C7.74998 10.725 7.87502 10.7 7.99998 10.7C8.12494 10.7 8.24998 10.725 8.37502 10.8L10.4 11.85L9.99998 9.60002C9.94998 9.35002 10.075 9.07506 10.25 8.90002L11.875 7.30002L9.62494 6.97506C9.34998 6.92498 9.14998 6.75002 9.02494 6.52498L7.99998 4.47506Z" fill="#1A1C1F"/>
</g>
<defs>
<clipPath id="clip0_187_440">
<rect width="16" height="16" fill="white"/>
</clipPath>
</defs>
</svg>

<svg xmlns="http://www.w3.org/2000/svg" width="16" height="16" fill="none"><g clip-path="url(#a)"><path fill="#1A1C1F" fill-rule="evenodd" d="M8 1.875c.3 0 .6.175.725.45L10.25 5.45l3.475.5a.79.79 0 0 1 .675.8c0 .2-.1.425-.25.575l-2.5 2.425.6 3.45c.075.5-.3.925-.8.925a.8.8 0 0 1-.35-.1L8 12.4l-3.1 1.625a.65.65 0 0 1-.375.1c-.475 0-.85-.475-.775-.925l.6-3.45-2.5-2.425a.86.86 0 0 1-.25-.575c0-.325.225-.725.675-.8l3.475-.5 1.525-3.125A.81.81 0 0 1 8 1.875m0 2.6-1.025 2.05a.8.8 0 0 1-.6.45l-2.25.325L5.75 8.9c.175.175.3.475.25.7l-.4 2.25 2.025-1.05c.125-.075.25-.1.375-.1s.25.025.375.1l2.025 1.05L10 9.6c-.05-.25.075-.525.25-.7l1.625-1.6-2.25-.325a.86.86 0 0 1-.6-.45z" clip-rule="evenodd"/></g><defs><clipPath id="a"><path fill="#fff" d="M0 0h16v16H0z"/></clipPath></defs></svg>
